svg/cut.svg

<svg xmlns="http://www.w3.org/2000/svg" viewBox="0 0 32 32" enable-background="new 0 0 32 32"><path d="M 6 6 C 3.8027056 6 2 7.8027056 2 10 C 2 12.197294 3.8027056 14 6 14 C 6.9570873 14 7.8090068 13.630173 8.5 13.0625 L 13.71875 16.03125 L 8.5625 18.96875 C 7.8640741 18.375274 6.9811258 18 6 18 C 3.8027056 18 2 19.802706 2 22 C 2 24.197294 3.8027056 26 6 26 C 8.1972944 26 10 24.197294 10 22 C 10 21.506488 9.8846716 21.031498 9.71875 20.59375 L 30 9 L 26 9 L 15.78125 14.84375 L 9.71875 11.40625 C 9.7923288 11.212128 9.863554 11.019334 9.90625 10.8125 C 9.9598343 10.552919 10 10.274662 10 10 C 10 7.8027056 8.1972944 6 6 6 z M 6 8 C 7.116414 8 8 8.883586 8 10 C 8 11.116414 7.116414 12 6 12 C 4.883586 12 4 11.116414 4 10 C 4 9.8604482 4.0049089 9.7247549 4.03125 9.59375 C 4.2156374 8.676716 5.0231378 8 6 8 z M 19.09375 16.8125 L 17.09375 17.90625 L 26 23 L 30 23 L 19.09375 16.8125 z M 6 20 C 7.116414 20 8 20.883586 8 22 C 8 23.116414 7.116414 24 6 24 C 4.883586 24 4 23.116414 4 22 C 4 21.860448 4.0049089 21.724755 4.03125 21.59375 C 4.2156374 20.676716 5.0231378 20 6 20 z"/></svg>

<svg xmlns="http://www.w3.org/2000/svg" viewBox="0 0 32 32"><path d="M6 6c-2.197 0-4 1.803-4 4s1.803 4 4 4c.957 0 1.81-.37 2.5-.938l5.22 2.97-5.158 2.937C7.864 18.374 6.982 18 6 18c-2.197 0-4 1.803-4 4s1.803 4 4 4 4-1.803 4-4c0-.494-.115-.97-.28-1.406L30 9h-4l-10.22 5.844-6.06-3.438c.072-.194.144-.387.186-.594.054-.26.094-.537.094-.812 0-2.197-1.803-4-4-4zm0 2c1.116 0 2 .884 2 2s-.884 2-2 2-2-.884-2-2c0-.14.005-.275.03-.406C4.217 8.677 5.024 8 6 8zm13.094 8.813l-2 1.093L26 23h4l-10.906-6.188zM6 20c1.116 0 2 .884 2 2s-.884 2-2 2-2-.884-2-2c0-.14.005-.275.03-.406C4.217 20.677 5.024 20 6 20z"/></svg>
